img/musescore.svg

<svg width="148" height="32" viewBox="0 0 148 32" fill="none" xmlns="http://www.w3.org/2000/svg">
<path d="M8.1816 11.9978C10.1201 11.9978 12.2003 12.9558 13.2557 14.4152C14.311 12.9558 16.3935 11.8127 18.332 11.8127C21.6253 11.8127 24.5136 14.2163 24.5136 18.8192L24.5876 21.9237C24.5876 26.6961 27.7351 27.3067 29.0311 27.3067C30.3271 27.3067 33.3561 26.4391 33.3561 22.3659V13.7741C33.3561 12.2962 35.5852 12.2962 35.5852 13.7741V22.3659C35.506 27.7351 31.6231 29.5254 29.0311 29.5254C26.4391 29.5254 22.3659 27.9921 22.3659 21.9237L22.2907 18.6395C22.2907 14.775 19.5887 14.2168 18.332 14.2168C16.3524 14.2168 14.3728 15.8624 14.3728 18.6395V28.4179C14.3728 29.0315 13.8752 29.5254 13.2616 29.5254H13.2568H13.252C12.6384 29.5254 12.1407 29.0315 12.1407 28.4179V18.6395C12.1407 15.8624 10.1612 14.2168 8.1816 14.2168C6.20204 14.2168 4.22173 15.2614 4.22284 19.3652V28.4179C4.22284 29.0278 3.72518 29.5254 3.11124 29.5254C2.49767 29.5254 2 29.0315 2 28.4179V19.3652C2 13.9654 4.9786 11.9978 8.1816 11.9978ZM28.8099 4.22173C25.9805 4.22173 24.3442 6.62861 24.3442 8.85034C24.3442 10.5166 22.124 10.5166 22.1236 8.85034C22.1236 4.96231 25.0548 2 28.8099 2C32.565 2 35.497 4.96231 35.497 8.85034C35.497 10.5166 33.27 10.5166 33.27 8.85034C33.27 6.62861 31.6393 4.22173 28.8099 4.22173ZM29.0243 7.446C29.8345 7.446 30.4907 8.10212 30.4907 8.91235C30.4907 9.72258 29.8345 10.3787 29.0243 10.3787C28.2142 10.3787 27.558 9.72258 27.558 8.91235C27.558 8.10212 28.2142 7.446 29.0243 7.446ZM47.6259 20.2827C51.1173 21.424 51.7346 23.3401 51.6487 24.7583C51.4913 27.4785 48.7523 29.5332 45.2834 29.5332C42.387 29.5332 39.9661 28.0061 38.9667 25.5515C38.7349 24.9827 39.0082 24.3355 39.5728 24.1033C40.1379 23.8752 40.7892 24.1444 41.021 24.7131C41.6835 26.3409 43.2776 27.3141 45.2834 27.3141C47.7833 27.3141 49.3585 25.9481 49.4333 24.6272C49.4522 24.2455 49.5118 23.239 47.0345 22.4307L42.851 21.061C40.1457 20.1667 38.8882 18.7372 39.0004 16.6978C39.1463 14.0185 41.8331 11.9978 45.2535 11.9978C48.1347 11.9978 50.5708 13.5433 51.4691 15.9382C51.6861 16.5107 51.3902 17.1506 50.8178 17.3639C50.2527 17.5809 49.6092 17.2853 49.3922 16.7128C48.8271 15.1935 47.203 14.2131 45.2572 14.2131C43.038 14.2131 41.3017 15.332 41.2195 16.8176C41.1932 17.2853 41.1447 18.1535 43.5546 18.9505L47.6259 20.2827ZM68.9678 19.2184C68.9678 20.5144 68.2272 21.4402 66.561 21.4577H56.7642C56.9701 25.0875 59.277 27.3104 62.1434 27.3104C63.8756 27.3104 66.0055 26.0788 66.7461 24.5876C67.0194 24.0374 67.677 23.9441 68.2272 24.2173C68.7734 24.4906 68.8227 25.0368 68.5457 25.583C67.4882 28.1054 64.6162 29.5291 62.1434 29.5291C57.8662 29.5291 54.5266 26.0043 54.5266 20.7617C54.5266 15.5191 57.7699 11.9978 62.0508 11.9978C66.2814 11.9978 68.9678 16.1074 68.9678 19.2184ZM56.8427 19.2386H66.1907C66.8572 19.2925 66.9253 18.7613 66.8201 18.2927C66.3217 16.071 64.4507 14.2131 62.0508 14.2131C59.4088 14.2131 57.2656 16.0991 56.8427 19.2386ZM80.6946 20.2827C84.1861 21.424 84.8034 23.3401 84.7175 24.7583C84.5601 27.4785 81.8211 29.5332 78.3522 29.5332C75.4558 29.5332 73.0349 28.0061 72.0354 25.5515C71.8036 24.9827 72.0769 24.3355 72.642 24.1033C73.2067 23.8752 73.858 24.1444 74.0898 24.7131C74.7523 26.3409 76.3464 27.3141 78.3522 27.3141C80.852 27.3141 82.4272 25.9481 82.502 24.6272C82.5209 24.2455 82.5805 23.239 80.1033 22.4307L75.9198 21.061C73.2144 20.1667 71.9569 18.7372 72.0691 16.6978C72.215 14.0185 74.9019 11.9978 78.3222 11.9978C81.2034 11.9978 83.6396 13.5433 84.5379 15.9382C84.7549 16.5107 84.459 17.1506 83.8865 17.3639C83.3215 17.5809 82.6779 17.2853 82.4609 16.7128C81.8959 15.1935 80.2718 14.2131 78.3259 14.2131C76.1068 14.2131 74.3705 15.332 74.2883 16.8176C74.262 17.2853 74.2135 18.1535 76.6233 18.9505L80.6946 20.2827ZM94.6685 14.22C91.7244 14.22 89.7164 16.7265 89.7092 20.7632C89.7092 24.7998 91.7173 27.31 94.6649 27.31C96.4464 27.31 98.0054 26.4083 98.8311 24.7102C99.0952 24.1636 99.7435 23.9392 100.272 24.2162C100.801 24.4891 101.018 25.1553 100.75 25.7052C99.5697 28.1331 97.236 29.5247 94.6649 29.5247C90.526 29.5247 87.5618 26.0006 87.5618 20.7594C87.5618 15.5182 90.5224 11.9978 94.6649 11.9978C97.2467 11.9978 99.5805 13.3895 100.754 15.8174C101.022 16.3637 100.808 17.0333 100.276 17.3064C99.7471 17.5758 99.0988 17.3625 98.8383 16.8126C98.0126 15.1179 96.4576 14.22 94.6685 14.22ZM110.819 11.9978C115.104 11.9978 118.162 15.5219 118.162 20.7594C118.162 26.0043 115.1 29.5247 110.819 29.5247C106.543 29.5247 103.48 26.0006 103.48 20.7594C103.48 15.5182 106.539 11.9978 110.819 11.9978ZM110.819 27.31C113.869 27.31 115.943 24.7998 115.943 20.7632C115.943 16.7228 113.865 14.2163 110.819 14.2163C107.774 14.2163 105.699 16.7265 105.699 20.7632C105.699 24.7998 107.774 27.31 110.819 27.31ZM123.942 21.2551V28.4275C123.942 29.0407 123.445 29.5365 122.831 29.5365C122.218 29.5365 121.72 29.0392 121.72 28.4257V13.1253C121.72 12.5118 122.218 12.0144 122.831 12.0144C123.445 12.0144 123.942 12.5114 123.942 13.1248V13.479C123.942 14.0158 123.923 14.4573 123.9 14.9746C123.894 15.1167 123.888 15.3399 123.882 15.497C125.237 13.3851 127.293 11.9978 129.496 11.9978C131.264 11.9978 131.181 14.2195 129.496 14.2195C126.045 14.2195 123.942 17.7373 123.942 21.2551ZM146 19.2184C146 20.5144 145.259 21.4402 143.593 21.4577H133.796C134.002 25.0875 136.309 27.3104 139.175 27.3104C140.907 27.3104 143.037 26.0788 143.778 24.5876C144.051 24.0374 144.709 23.9441 145.259 24.2173C145.805 24.4906 145.854 25.0368 145.577 25.583C144.52 28.1054 141.648 29.5291 139.175 29.5291C134.898 29.5291 131.559 26.0043 131.559 20.7617C131.559 15.5191 134.802 11.9978 139.083 11.9978C143.313 11.9978 146 16.1074 146 19.2184ZM133.875 19.2386H143.223C143.889 19.2925 143.957 18.7613 143.852 18.2927C143.354 16.071 141.482 14.2131 139.083 14.2131C136.441 14.2131 134.298 16.0991 133.875 19.2386Z" fill="#1F74BD"/>
</svg>

<svg xmlns="http://www.w3.org/2000/svg" width="148" height="32" fill="none"><path fill="#1F74BD" d="M8.182 11.998c1.938 0 4.018.958 5.074 2.417 1.055-1.46 3.137-2.602 5.076-2.602 3.293 0 6.182 2.403 6.182 7.006l.074 3.105c0 4.772 3.147 5.383 4.443 5.383s4.325-.868 4.325-4.941v-8.592c0-1.478 2.23-1.478 2.23 0v8.592c-.08 5.37-3.963 7.16-6.555 7.16s-6.665-1.534-6.665-7.602l-.075-3.284c0-3.865-2.702-4.423-3.959-4.423-1.98 0-3.96 1.645-3.96 4.423v9.778c0 .614-.497 1.107-1.11 1.107h-.01a1.11 1.11 0 0 1-1.111-1.107V18.64c0-2.778-1.98-4.423-3.96-4.423s-3.96 1.044-3.958 5.148v9.053a1.11 1.11 0 0 1-1.112 1.107A1.11 1.11 0 0 1 2 28.418v-9.053c0-5.4 2.979-7.367 6.182-7.367M28.81 4.222c-2.83 0-4.466 2.407-4.466 4.628 0 1.667-2.22 1.667-2.22 0 0-3.888 2.93-6.85 6.686-6.85s6.687 2.962 6.687 6.85c0 1.667-2.227 1.667-2.227 0 0-2.221-1.63-4.628-4.46-4.628m.214 3.224a1.466 1.466 0 1 1 .001 2.932 1.466 1.466 0 0 1 0-2.932m18.602 12.837c3.491 1.141 4.109 3.057 4.023 4.475-.158 2.72-2.897 4.775-6.366 4.775-2.896 0-5.317-1.527-6.316-3.982a1.11 1.11 0 0 1 .606-1.448 1.115 1.115 0 0 1 1.448.61c.663 1.628 2.257 2.601 4.262 2.601 2.5 0 4.075-1.366 4.15-2.687.02-.381.079-1.388-2.398-2.196l-4.184-1.37c-2.705-.894-3.963-2.324-3.85-4.363.145-2.68 2.832-4.7 6.253-4.7 2.88 0 5.317 1.545 6.215 3.94a1.107 1.107 0 0 1-.651 1.426 1.11 1.11 0 0 1-1.426-.651c-.565-1.52-2.189-2.5-4.135-2.5-2.219 0-3.955 1.119-4.038 2.605-.026.467-.074 1.335 2.336 2.133zm21.342-1.065c0 1.296-.74 2.222-2.407 2.24h-9.797c.206 3.63 2.513 5.852 5.38 5.852 1.732 0 3.861-1.231 4.602-2.722.273-.55.931-.644 1.481-.37.546.273.596.819.319 1.365-1.058 2.522-3.93 3.946-6.403 3.946-4.277 0-7.616-3.525-7.616-8.767 0-5.243 3.243-8.764 7.524-8.764 4.23 0 6.917 4.11 6.917 7.22m-12.125.02h9.348c.666.055.734-.477.63-.945-.5-2.222-2.37-4.08-4.77-4.08-2.642 0-4.785 1.886-5.208 5.026m23.852 1.045c3.491 1.141 4.108 3.057 4.023 4.475-.158 2.72-2.897 4.775-6.366 4.775-2.896 0-5.317-1.527-6.317-3.982a1.11 1.11 0 0 1 .607-1.448 1.115 1.115 0 0 1 1.448.61c.662 1.628 2.256 2.601 4.262 2.601 2.5 0 4.075-1.366 4.15-2.687.019-.381.079-1.388-2.399-2.196l-4.183-1.37c-2.706-.894-3.963-2.324-3.85-4.363.145-2.68 2.832-4.7 6.252-4.7 2.881 0 5.318 1.545 6.216 3.94a1.107 1.107 0 0 1-.651 1.426 1.11 1.11 0 0 1-1.426-.651c-.565-1.52-2.19-2.5-4.135-2.5-2.22 0-3.955 1.119-4.038 2.605-.026.467-.075 1.335 2.335 2.133zm13.974-6.063c-2.945 0-4.953 2.507-4.96 6.543 0 4.037 2.008 6.547 4.956 6.547 1.781 0 3.34-.902 4.166-2.6a1.056 1.056 0 0 1 1.441-.494c.529.273.746.94.478 1.49-1.18 2.427-3.514 3.819-6.085 3.819-4.139 0-7.103-3.524-7.103-8.766 0-5.24 2.96-8.761 7.103-8.761 2.582 0 4.915 1.392 6.089 3.82a1.12 1.12 0 0 1-.478 1.488 1.055 1.055 0 0 1-1.438-.493c-.825-1.695-2.38-2.593-4.17-2.593m16.15-2.222c4.285 0 7.343 3.524 7.343 8.761 0 5.245-3.062 8.766-7.343 8.766-4.276 0-7.339-3.524-7.339-8.766 0-5.24 3.059-8.761 7.339-8.761m0 15.312c3.05 0 5.124-2.51 5.124-6.547 0-4.04-2.078-6.547-5.124-6.547s-5.12 2.51-5.12 6.547 2.075 6.547 5.12 6.547m13.123-6.055v7.172a1.111 1.111 0 0 1-2.222-.002v-15.3a1.111 1.111 0 0 1 2.222 0v.354c0 .537-.019.978-.042 1.496-.006.142-.012.365-.018.522 1.355-2.112 3.411-3.5 5.614-3.5 1.768 0 1.685 2.223 0 2.223-3.451 0-5.554 3.517-5.554 7.035M146 19.218c0 1.296-.741 2.222-2.407 2.24h-9.797c.206 3.63 2.513 5.852 5.379 5.852 1.732 0 3.862-1.231 4.603-2.722.273-.55.931-.644 1.481-.37.546.273.595.819.318 1.365-1.057 2.522-3.929 3.946-6.402 3.946-4.277 0-7.616-3.525-7.616-8.767 0-5.243 3.243-8.764 7.524-8.764 4.23 0 6.917 4.11 6.917 7.22m-12.125.02h9.348c.666.055.734-.477.629-.945-.498-2.222-2.37-4.08-4.769-4.08-2.642 0-4.785 1.886-5.208 5.026"/></svg>
